static/img/kroki/2f40c109d395e82a3e95bbacd2dbc70b.svg

<?xml version="1.0" encoding="us-ascii" standalone="no"?><svg xmlns="http://www.w3.org/2000/svg" xmlns:xlink="http://www.w3.org/1999/xlink" contentStyleType="text/css" height="864px" preserveAspectRatio="none" style="width:323px;height:864px;" version="1.1" viewBox="0 0 323 864" width="323px" zoomAndPan="magnify"><defs/><g><!--class azure_ip_allocation--><g id="elem_azure_ip_allocation"><rect codeLine="22" fill="#3D176E" height="258.1641" id="azure_ip_allocation" rx="2.5" ry="2.5" style="stroke:#000D19;stroke-width:0.5;" width="309" x="7" y="599.55"/><ellipse cx="72.25" cy="619.4445" fill="#ADD1B2" rx="11" ry="11" style="stroke:#181818;stroke-width:1.0;"/><path d="M75.2188,625.0852 Q74.6406,625.382 74,625.5227 Q73.3594,625.6789 72.6563,625.6789 Q70.1563,625.6789 68.8281,624.0383 Q67.5156,622.382 67.5156,619.257 Q67.5156,616.132 68.8281,614.4758 Q70.1563,612.8195 72.6563,612.8195 Q73.3594,612.8195 74,612.9758 Q74.6563,613.132 75.2188,613.4289 L75.2188,616.1477 Q74.5938,615.5695 74,615.3039 Q73.4063,615.0227 72.7813,615.0227 Q71.4375,615.0227 70.75,616.1008 Q70.0625,617.1633 70.0625,619.257 Q70.0625,621.3508 70.75,622.4289 Q71.4375,623.4914 72.7813,623.4914 Q73.4063,623.4914 74,623.2258 Q74.5938,622.9445 75.2188,622.3664 L75.2188,625.0852 Z " fill="#000000"/><text fill="#D9B8FF" font-family="Helvetica" font-size="17" lengthAdjust="spacing" textLength="160" x="97.75" y="625.3298">azure_ip_allocation</text><line style="stroke:#000D19;stroke-width:0.5;" x1="8" x2="315" y1="639.3391" y2="639.3391"/><text fill="#D9B8FF" font-family="sans-serif" font-size="14" font-weight="bold" lengthAdjust="spacing" textLength="116" x="18" y="661.3342">allocation_tags</text><text fill="#D9B8FF" font-family="sans-serif" font-size="14" lengthAdjust="spacing" textLength="171" x="134" y="661.3342">: dictionary[string, string]</text><text fill="#D9B8FF" font-family="sans-serif" font-size="14" font-weight="bold" lengthAdjust="spacing" textLength="35" x="18" y="687.6311">etag</text><text fill="#D9B8FF" font-family="sans-serif" font-size="14" lengthAdjust="spacing" textLength="48" x="53" y="687.6311">: string</text><text fill="#D9B8FF" font-family="sans-serif" font-size="14" font-weight="bold" lengthAdjust="spacing" textLength="140" x="18" y="713.9279">ipam_allocation_id</text><text fill="#D9B8FF" font-family="sans-serif" font-size="14" lengthAdjust="spacing" textLength="48" x="158" y="713.9279">: string</text><text fill="#D9B8FF" font-family="sans-serif" font-size="14" font-weight="bold" lengthAdjust="spacing" textLength="46" x="18" y="740.2248">prefix</text><text fill="#D9B8FF" font-family="sans-serif" font-size="14" lengthAdjust="spacing" textLength="48" x="64" y="740.2248">: string</text><text fill="#D9B8FF" font-family="sans-serif" font-size="14" font-weight="bold" lengthAdjust="spacing" textLength="103" x="18" y="766.5217">prefix_length</text><text fill="#D9B8FF" font-family="sans-serif" font-size="14" lengthAdjust="spacing" textLength="44" x="121" y="766.5217">: int64</text><text fill="#D9B8FF" font-family="sans-serif" font-size="14" font-weight="bold" lengthAdjust="spacing" textLength="88" x="18" y="792.8186">prefix_type</text><text fill="#D9B8FF" font-family="sans-serif" font-size="14" lengthAdjust="spacing" textLength="48" x="106" y="792.8186">: string</text><text fill="#D9B8FF" font-family="sans-serif" font-size="14" font-weight="bold" lengthAdjust="spacing" textLength="55" x="18" y="819.1154">subnet</text><text fill="#D9B8FF" font-family="sans-serif" font-size="14" lengthAdjust="spacing" textLength="48" x="73" y="819.1154">: string</text><text fill="#D9B8FF" font-family="sans-serif" font-size="14" font-weight="bold" lengthAdjust="spacing" textLength="122" x="18" y="845.4123">virtual_network</text><text fill="#D9B8FF" font-family="sans-serif" font-size="14" lengthAdjust="spacing" textLength="48" x="140" y="845.4123">: string</text></g><!--class azure_resource--><g id="elem_azure_resource"><rect codeLine="32" fill="#3D176E" height="39.7891" id="azure_resource" rx="2.5" ry="2.5" style="stroke:#000D19;stroke-width:0.5;" width="168" x="77.5" y="438.76"/><ellipse cx="92.5" cy="458.6545" fill="#ADD1B2" rx="11" ry="11" style="stroke:#181818;stroke-width:1.0;"/><path d="M95.4688,464.2952 Q94.8906,464.592 94.25,464.7327 Q93.6094,464.8889 92.9063,464.8889 Q90.4063,464.8889 89.0781,463.2483 Q87.7656,461.592 87.7656,458.467 Q87.7656,455.342 89.0781,453.6858 Q90.4063,452.0295 92.9063,452.0295 Q93.6094,452.0295 94.25,452.1858 Q94.9063,452.342 95.4688,452.6389 L95.4688,455.3577 Q94.8438,454.7795 94.25,454.5139 Q93.6563,454.2327 93.0313,454.2327 Q91.6875,454.2327 91,455.3108 Q90.3125,456.3733 90.3125,458.467 Q90.3125,460.5608 91,461.6389 Q91.6875,462.7014 93.0313,462.7014 Q93.6563,462.7014 94.25,462.4358 Q94.8438,462.1545 95.4688,461.5764 L95.4688,464.2952 Z " fill="#000000"/><text fill="#D9B8FF" font-family="Helvetica" font-size="17" lengthAdjust="spacing" textLength="126" x="111.5" y="464.5398">azure_resource</text></g><!--class resource--><g id="elem_resource"><rect codeLine="34" fill="#3D176E" height="310.7578" id="resource" rx="2.5" ry="2.5" style="stroke:#000D19;stroke-width:0.5;" width="227" x="48" y="7"/><ellipse cx="116.75" cy="26.8945" fill="#ADD1B2" rx="11" ry="11" style="stroke:#181818;stroke-width:1.0;"/><path d="M119.7188,32.5352 Q119.1406,32.832 118.5,32.9727 Q117.8594,33.1289 117.1563,33.1289 Q114.6563,33.1289 113.3281,31.4883 Q112.0156,29.832 112.0156,26.707 Q112.0156,23.582 113.3281,21.9258 Q114.6563,20.2695 117.1563,20.2695 Q117.8594,20.2695 118.5,20.4258 Q119.1563,20.582 119.7188,20.8789 L119.7188,23.5977 Q119.0938,23.0195 118.5,22.7539 Q117.9063,22.4727 117.2813,22.4727 Q115.9375,22.4727 115.25,23.5508 Q114.5625,24.6133 114.5625,26.707 Q114.5625,28.8008 115.25,29.8789 Q115.9375,30.9414 117.2813,30.9414 Q117.9063,30.9414 118.5,30.6758 Q119.0938,30.3945 119.7188,29.8164 L119.7188,32.5352 Z " fill="#000000"/><text fill="#D9B8FF" font-family="Helvetica" font-size="17" lengthAdjust="spacing" textLength="71" x="142.25" y="32.7798">resource</text><line style="stroke:#000D19;stroke-width:0.5;" x1="49" x2="274" y1="46.7891" y2="46.7891"/><text fill="#D9B8FF" font-family="sans-serif" font-size="14" font-weight="bold" lengthAdjust="spacing" textLength="29" x="59" y="68.7842">age</text><text fill="#D9B8FF" font-family="sans-serif" font-size="14" lengthAdjust="spacing" textLength="66" x="88" y="68.7842">: duration</text><text fill="#D9B8FF" font-family="sans-serif" font-size="14" font-weight="bold" lengthAdjust="spacing" textLength="43" x="59" y="95.0811">atime</text><text fill="#D9B8FF" font-family="sans-serif" font-size="14" lengthAdjust="spacing" textLength="70" x="102" y="95.0811">: datetime</text><text fill="#D9B8FF" font-family="sans-serif" font-size="14" font-weight="bold" lengthAdjust="spacing" textLength="43" x="59" y="121.3779">ctime</text><text fill="#D9B8FF" font-family="sans-serif" font-size="14" lengthAdjust="spacing" textLength="70" x="102" y="121.3779">: datetime</text><text fill="#D9B8FF" font-family="sans-serif" font-size="14" font-weight="bold" lengthAdjust="spacing" textLength="14" x="59" y="147.6748">id</text><text fill="#D9B8FF" font-family="sans-serif" font-size="14" lengthAdjust="spacing" textLength="48" x="73" y="147.6748">: string</text><text fill="#D9B8FF" font-family="sans-serif" font-size="14" font-weight="bold" lengthAdjust="spacing" textLength="33" x="59" y="173.9717">kind</text><text fill="#D9B8FF" font-family="sans-serif" font-size="14" lengthAdjust="spacing" textLength="48" x="92" y="173.9717">: string</text><text fill="#D9B8FF" font-family="sans-serif" font-size="14" font-weight="bold" lengthAdjust="spacing" textLength="90" x="59" y="200.2686">last_access</text><text fill="#D9B8FF" font-family="sans-serif" font-size="14" lengthAdjust="spacing" textLength="66" x="149" y="200.2686">: duration</text><text fill="#D9B8FF" font-family="sans-serif" font-size="14" font-weight="bold" lengthAdjust="spacing" textLength="90" x="59" y="226.5654">last_update</text><text fill="#D9B8FF" font-family="sans-serif" font-size="14" lengthAdjust="spacing" textLength="66" x="149" y="226.5654">: duration</text><text fill="#D9B8FF" font-family="sans-serif" font-size="14" font-weight="bold" lengthAdjust="spacing" textLength="48" x="59" y="252.8623">mtime</text><text fill="#D9B8FF" font-family="sans-serif" font-size="14" lengthAdjust="spacing" textLength="70" x="107" y="252.8623">: datetime</text><text fill="#D9B8FF" font-family="sans-serif" font-size="14" font-weight="bold" lengthAdjust="spacing" textLength="43" x="59" y="279.1592">name</text><text fill="#D9B8FF" font-family="sans-serif" font-size="14" lengthAdjust="spacing" textLength="48" x="102" y="279.1592">: string</text><text fill="#D9B8FF" font-family="sans-serif" font-size="14" font-weight="bold" lengthAdjust="spacing" textLength="34" x="59" y="305.4561">tags</text><text fill="#D9B8FF" font-family="sans-serif" font-size="14" lengthAdjust="spacing" textLength="171" x="93" y="305.4561">: dictionary[string, string]</text></g><!--reverse link azure_resource to azure_ip_allocation--><g id="link_azure_resource_azure_ip_allocation"><path codeLine="46" d="M161.5,496.92 C161.5,522.61 161.5,552.27 161.5,599.05 " fill="none" id="azure_resource-backto-azure_ip_allocation" style="stroke:#FFAF37;stroke-width:2.0;"/><polygon fill="none" points="161.5,478.92,155.5,496.92,167.5,496.92,161.5,478.92" style="stroke:#FFAF37;stroke-width:2.0;"/></g><!--reverse link resource to azure_resource--><g id="link_resource_azure_resource"><path codeLine="47" d="M161.5,335.84 C161.5,384.13 161.5,413.37 161.5,438.67 " fill="none" id="resource-backto-azure_resource" style="stroke:#FFAF37;stroke-width:2.0;"/><polygon fill="none" points="161.5,317.84,155.5,335.84,167.5,335.84,161.5,317.84" style="stroke:#FFAF37;stroke-width:2.0;"/></g><!--SRC=[ZPFDRjim48JlVWe2kHarO2Tj71Uzf0QAzX8KJMz58Qp9bKnO98NbAgxJvjrBMdL3KShFIUBCfzqTajfgXG9DmmTXq6oG_CJlj6s0m8Xh8hTVkzgHE2jBA2-MkVd9MNuHk063uZFMTyXQGavytsgvi-YzE4-iZo1t5RdMgguy4rWVBBISKEiQlBzc9hrf6PDXr6fpLPOvcHSzkr2BvIKEC4SAwHyody_LOfKZBxPwDlT_ubRVerYactRZ60TZ3beSgMUdZ4Gov23eoNzong-WbBQLU9TetxgPo2BrzDijABUFT0crJzjuHaB7XmRNWrIukbBbSXJ-yXGiuyu9k6y92zqKKDTE0cjdnU_9TFguB1WgFvs-5qhBk0Ow_F3XcjZgZUYUFmEFWOfGfmH1Ds2IeeLMFRiXBFMl4QceqLQyZOwsVFdsqOXfUX_uTcEHUzAT9cwXBeA-TxHBl8TUO4BlMf8OifwCH0hngsChrT9n-gYmDfq6ZF4zQ794otA64-aBeHSN86NuIxCEHwTjOgtCCIDzB9Z-RhpYc1ucMVeFVsQpsTWTc8mY9_4l]--></g></svg>

<svg xmlns="http://www.w3.org/2000/svg" width="323" height="864" viewBox="0 0 323 864"><rect width="309" height="258.164" x="7" y="599.55" fill="#3D176E" rx="2.5" ry="2.5" style="stroke:#000d19;stroke-width:.5"/><circle cx="72.25" cy="619.444" r="11" fill="#ADD1B2" style="stroke:#181818;stroke-width:1"/><path d="M75.219 625.085q-.578.297-1.219.438-.64.156-1.344.156-2.5 0-3.828-1.64-1.312-1.657-1.312-4.782t1.312-4.781q1.328-1.657 3.828-1.657.703 0 1.344.157.656.156 1.219.453v2.719q-.625-.579-1.219-.844-.594-.281-1.219-.281-1.344 0-2.031 1.078-.687 1.062-.687 3.156t.687 3.172q.688 1.062 2.031 1.062.625 0 1.219-.265.594-.282 1.219-.86z"/><text x="97.75" y="625.33" fill="#D9B8FF" font-family="Helvetica" font-size="17" textLength="160">azure_ip_allocation</text><path d="M8 639.339h307" style="stroke:#000d19;stroke-width:.5"/><text x="18" y="661.334" fill="#D9B8FF" font-family="sans-serif" font-size="14" font-weight="bold" textLength="116">allocation_tags</text><text x="134" y="661.334" fill="#D9B8FF" font-family="sans-serif" font-size="14" textLength="171">: dictionary[string, string]</text><text x="18" y="687.631" fill="#D9B8FF" font-family="sans-serif" font-size="14" font-weight="bold" textLength="35">etag</text><text x="53" y="687.631" fill="#D9B8FF" font-family="sans-serif" font-size="14" textLength="48">: string</text><text x="18" y="713.928" fill="#D9B8FF" font-family="sans-serif" font-size="14" font-weight="bold" textLength="140">ipam_allocation_id</text><text x="158" y="713.928" fill="#D9B8FF" font-family="sans-serif" font-size="14" textLength="48">: string</text><text x="18" y="740.225" fill="#D9B8FF" font-family="sans-serif" font-size="14" font-weight="bold" textLength="46">prefix</text><text x="64" y="740.225" fill="#D9B8FF" font-family="sans-serif" font-size="14" textLength="48">: string</text><text x="18" y="766.522" fill="#D9B8FF" font-family="sans-serif" font-size="14" font-weight="bold" textLength="103">prefix_length</text><text x="121" y="766.522" fill="#D9B8FF" font-family="sans-serif" font-size="14" textLength="44">: int64</text><text x="18" y="792.819" fill="#D9B8FF" font-family="sans-serif" font-size="14" font-weight="bold" textLength="88">prefix_type</text><text x="106" y="792.819" fill="#D9B8FF" font-family="sans-serif" font-size="14" textLength="48">: string</text><text x="18" y="819.115" fill="#D9B8FF" font-family="sans-serif" font-size="14" font-weight="bold" textLength="55">subnet</text><text x="73" y="819.115" fill="#D9B8FF" font-family="sans-serif" font-size="14" textLength="48">: string</text><text x="18" y="845.412" fill="#D9B8FF" font-family="sans-serif" font-size="14" font-weight="bold" textLength="122">virtual_network</text><text x="140" y="845.412" fill="#D9B8FF" font-family="sans-serif" font-size="14" textLength="48">: string</text><rect width="168" height="39.789" x="77.5" y="438.76" fill="#3D176E" rx="2.5" ry="2.5" style="stroke:#000d19;stroke-width:.5"/><circle cx="92.5" cy="458.654" r="11" fill="#ADD1B2" style="stroke:#181818;stroke-width:1"/><path d="M95.469 464.295q-.578.297-1.219.438-.64.156-1.344.156-2.5 0-3.828-1.64-1.312-1.657-1.312-4.782t1.312-4.781q1.328-1.656 3.828-1.656.703 0 1.344.156.656.156 1.219.453v2.719q-.625-.579-1.219-.844-.594-.281-1.219-.281-1.344 0-2.031 1.078-.687 1.062-.687 3.156t.687 3.172q.688 1.062 2.031 1.062.625 0 1.219-.265.594-.281 1.219-.86z"/><text x="111.5" y="464.54" fill="#D9B8FF" font-family="Helvetica" font-size="17" textLength="126">azure_resource</text><rect width="227" height="310.758" x="48" y="7" fill="#3D176E" rx="2.5" ry="2.5" style="stroke:#000d19;stroke-width:.5"/><circle cx="116.75" cy="26.895" r="11" fill="#ADD1B2" style="stroke:#181818;stroke-width:1"/><path d="M119.719 32.535q-.578.297-1.219.438-.64.156-1.344.156-2.5 0-3.828-1.64-1.312-1.657-1.312-4.782t1.312-4.781q1.328-1.656 3.828-1.656.703 0 1.344.156.656.156 1.219.453v2.719q-.625-.578-1.219-.844-.594-.281-1.219-.281-1.344 0-2.031 1.078-.687 1.062-.687 3.156t.687 3.172q.688 1.062 2.031 1.062.625 0 1.219-.265.594-.281 1.219-.86z"/><text x="142.25" y="32.78" fill="#D9B8FF" font-family="Helvetica" font-size="17" textLength="71">resource</text><path d="M49 46.789h225" style="stroke:#000d19;stroke-width:.5"/><text x="59" y="68.784" fill="#D9B8FF" font-family="sans-serif" font-size="14" font-weight="bold" textLength="29">age</text><text x="88" y="68.784" fill="#D9B8FF" font-family="sans-serif" font-size="14" textLength="66">: duration</text><text x="59" y="95.081" fill="#D9B8FF" font-family="sans-serif" font-size="14" font-weight="bold" textLength="43">atime</text><text x="102" y="95.081" fill="#D9B8FF" font-family="sans-serif" font-size="14" textLength="70">: datetime</text><text x="59" y="121.378" fill="#D9B8FF" font-family="sans-serif" font-size="14" font-weight="bold" textLength="43">ctime</text><text x="102" y="121.378" fill="#D9B8FF" font-family="sans-serif" font-size="14" textLength="70">: datetime</text><text x="59" y="147.675" fill="#D9B8FF" font-family="sans-serif" font-size="14" font-weight="bold" textLength="14">id</text><text x="73" y="147.675" fill="#D9B8FF" font-family="sans-serif" font-size="14" textLength="48">: string</text><text x="59" y="173.972" fill="#D9B8FF" font-family="sans-serif" font-size="14" font-weight="bold" textLength="33">kind</text><text x="92" y="173.972" fill="#D9B8FF" font-family="sans-serif" font-size="14" textLength="48">: string</text><text x="59" y="200.269" fill="#D9B8FF" font-family="sans-serif" font-size="14" font-weight="bold" textLength="90">last_access</text><text x="149" y="200.269" fill="#D9B8FF" font-family="sans-serif" font-size="14" textLength="66">: duration</text><text x="59" y="226.565" fill="#D9B8FF" font-family="sans-serif" font-size="14" font-weight="bold" textLength="90">last_update</text><text x="149" y="226.565" fill="#D9B8FF" font-family="sans-serif" font-size="14" textLength="66">: duration</text><text x="59" y="252.862" fill="#D9B8FF" font-family="sans-serif" font-size="14" font-weight="bold" textLength="48">mtime</text><text x="107" y="252.862" fill="#D9B8FF" font-family="sans-serif" font-size="14" textLength="70">: datetime</text><text x="59" y="279.159" fill="#D9B8FF" font-family="sans-serif" font-size="14" font-weight="bold" textLength="43">name</text><text x="102" y="279.159" fill="#D9B8FF" font-family="sans-serif" font-size="14" textLength="48">: string</text><text x="59" y="305.456" fill="#D9B8FF" font-family="sans-serif" font-size="14" font-weight="bold" textLength="34">tags</text><text x="93" y="305.456" fill="#D9B8FF" font-family="sans-serif" font-size="14" textLength="171">: dictionary[string, string]</text><path fill="none" d="M161.5 496.92v102.13m0-120.13-6 18h12zm0-143.08v102.83m0-120.83-6 18h12z" style="stroke:#ffaf37;stroke-width:2"/></svg>
